X:98
T:Kiss the Maid Behind the Byre (j)
B:NFID.058b
098kiss_m
S:JD
L:1/8
M:6/8
R:jig
Q:320
K:Am
c2B|: ABA AGE|cBc d^cd|e^fe edB|g^fg a2b|
age c2e|dBG GAB|c2e dcB|1 A3 E3:|2 A3 A2||
^g|aba ae^f|g^fg efg|aba ae^f|g^fg efg|
age c2e|dBG GAB|c2e dcB|1 A3 A2:|2 A3 E3|]

%%%

